X: 3
T: Missa Almana / Kyrie
N: Derived from Rue1002a-Missa_Almana-Kyrie.krn
C: Pierre de la Rue
%%abc-version 2.0
%%abcx-abcm2ps-target-version 5.9.1 (29 Sep 2008)
%%abc-creator hum2abc beta
%%abcx-conversion-date 2019/02/17 08:01:09
%%abc-edited-by Jesse Rodin
%%abc-edited-by Chris Gage 11-01-2012
%%abcx-initial-encoding-date 2012/11/17/
%%humdrum-veritas 3105841705
%%humdrum-veritas-data 3038761020
%%linebreak <none>
%%barnumbers 0
L: 1/4
M: 2/1
Q: 1/2=120
%%staves [1 2 3 4]
V: 1 clef=treble
V: 2 clef=treble-8
V: 3 clef=treble-8
V: 4 clef=bass
K: F
[V:1] z8 | 
[V:2] F8 | 
[V:3] z8 | 
[V:4] z8 | 
[V:1] z8 | 
[V:2] B4B4 | 
[V:3] z8 | 
[V:4] z8 | 
[V:1] C8 | 
[V:2] A4A2Bc | 
[V:3] z8 | 
[V:4] z8 | 
[V:1] F4F4 | 
[V:2] d6cB | 
[V:3] z8 | 
[V:4] z8 | 
[V:1] E4E2FG | 
[V:2] cAc3BAG | 
[V:3] C8 | 
[V:4] z8 | 
[V:1] A6F2 | 
[V:2] F2c2A2c2- | 
[V:3] F4F4 | 
[V:4] z8 | 
[V:1] A2G3FED | 
[V:2] c2BAG4 | 
[V:3] E4E4 | 
[V:4] C,8 | 
[V:1] C3B,A,G,C2- | 
[V:2] z2c4A2 | 
[V:3] A8 | 
[V:4] F,4F,4 | 
[V:1] C2G2E2G2- | 
[V:2] c3Bcd_e2- | 
[V:3] G8- | 
[V:4] E,4C,4 | 
[V:1] G2FED4 | 
[V:2] edc4=B2 | 
[V:3] G8 | 
[V:4] G,,8 | 
[V:1] C8 | 
[V:2] c2A2c4- | 
[V:3] z4A4 | 
[V:4] C,4A,,2C,2- | 
[V:1] z8 | 
[V:2] c2BABAGF | 
[V:3] G2E2G3A | 
[V:4] C,2G,2E,2G,2- | 
[V:1] G4F4 | 
[V:2] E4F4 | 
[V:3] B2c4=B2 | 
[V:4] G,2F,E,D,4 | 
[V:1] E3FG2A2- | 
[V:2] G2A2G2F2 | 
[V:3] c8- | 
[V:4] C,3D,E,2F,2- | 
[V:1] A2G2A2c2- | 
[V:2] c4A3B | 
[V:3] c8 | 
[V:4] F,2E,2F,4 | 
[V:1] cBA4G2 | 
[V:2] c4d4 | 
[V:3] A4B4 | 
[V:4] z2F,2D,2E,2 | 
[V:1] A4z2F2 | 
[V:2] c3B/A/G2A2 | 
[V:3] A3Bc2d2- | 
[V:4] F,4E,2D,2 | 
[V:1] G3AB2A2- | 
[V:2] G2E2F4- | 
[V:3] d2c2d4 | 
[V:4] E,4D,4 | 
[V:1] A2GFG4 | 
[V:2] F2EDC2c2- | 
[V:3] A4z4 | 
[V:4] z2D,2_E,4 | 
[V:1] E2C2D4 | 
[V:2] cBA2G2F2 | 
[V:3] z2A2B4 | 
[V:4] C,4B,,4 | 
[V:1] z2E2F2D2 | 
[V:2] E4D2d2- | 
[V:3] G4F4 | 
[V:4] z2C,2D,2B,,2 | 
[V:1] G4z2D2 | 
[V:2] d2c4B2 | 
[V:3] z2G2A2F2 | 
[V:4] C,2_E,2D,4 | 
[V:1] E2G4F2 | 
[V:2] c2d2c2A2 | 
[V:3] G2B2A4 | 
[V:4] z2B,,2C,2D,2 | 
[V:1] G2A2G2E2 | 
[V:2] G2F2B2c2 | 
[V:3] z2F2G2A2 | 
[V:4] _E,2D,2E,2C,2 | 
[V:1] D2C2F2G2- | 
[V:2] F2E2F2B2 | 
[V:3] B2A2B2G2 | 
[V:4] B,,2C,2D,2B,,2 | 
[V:1] GFF4E2 | 
[V:2] A2B2c4- | 
[V:3] A2F2G4 | 
[V:4] C,8 | 
[V:1] F8 ||  
[V:2] c8 ||  
[V:3] F8 ||  
[V:4] F,,8 ||  
[V:1]  [K:F] [K:clef=treble][M:2/1]F8- | 
[V:2]  [K:F] [K:clef=treble-8][M:2/1]F8 | 
[V:3]  [K:F] [K:clef=treble-8][M:2/1]z8 | 
[V:4]  [K:F] [K:clef=bass][M:2/1]z8 | 
[V:1] F8 | 
[V:2] B6AG | 
[V:3] z8 | 
[V:4] B,,8 | 
[V:1] G6FE | 
[V:2] G8 | 
[V:3] z8 | 
[V:4] _E,6D,C, | 
[V:1] E8- | 
[V:2] G4E4- | 
[V:3] c8- | 
[V:4] C,6B,,A,, | 
[V:1] E8 | 
[V:2] E2DCC4 | 
[V:3] c8 | 
[V:4] A,,6G,,F,, | 
[V:1] F6ED | 
[V:2] A4F4 | 
[V:3] c4d4- | 
[V:4] F,,4B,,4- | 
[V:1] D4B4- | 
[V:2] B6AG | 
[V:3] d2cBB4- | 
[V:4] B,,2A,,G,,G,,4- | 
[V:1] B2AGG4- | 
[V:2] G8 | 
[V:3] B4B4 | 
[V:4] G,,4G,4 | 
[V:1] G4A4- | 
[V:2] z8 | 
[V:3] c6BA | 
[V:4] C,4F,4- | 
[V:1] A2GFF4 | 
[V:2] d6cB | 
[V:3] A8 | 
[V:4] F,2E,D,D,4- | 
[V:1] z2F4ED | 
[V:2] B8 | 
[V:3] d6cB | 
[V:4] D,2C,B,,B,,4- | 
[V:1] F2G2B4- | 
[V:2] d8- | 
[V:3] B6AG | 
[V:4] B,,2A,,G,,G,,4- | 
[V:1] B2AGG4- | 
[V:2] d8- | 
[V:3] G8 | 
[V:4] G,,4G,,4 | 
[V:1] G4^F4 | 
[V:2] d8 | 
[V:3] A8 | 
[V:4] D,8 | 
[V:1] G2B2A2c2- | 
[V:2] B3AF2A2 | 
[V:3] G4c4- | 
[V:4] G,,2G,2A,2F,2- | 
[V:1] cBG2A2F2- | 
[V:2] G4F4- | 
[V:3] c4A4 | 
[V:4] F,2E,2F,2D,2- | 
[V:1] FED2C2D2- | 
[V:2] F2G2A2D2 | 
[V:3] B4F4 | 
[V:4] D,C,B,,2A,,2B,,2 | 
[V:1] D2G,4G2- | 
[V:2] d8- | 
[V:3] B8- | 
[V:4] G,,8 | 
[V:1] G2F2G2B2- | 
[V:2] d8 | 
[V:3] B8 | 
[V:4] z4z2G,,2- | 
[V:1] B2A2B2F2 | 
[V:2] D8 | 
[V:3] d8 | 
[V:4] G,,2F,,2G,,2B,,2- | 
[V:1] G2A2D2G2- | 
[V:2] z8 | 
[V:3] c4B3A | 
[V:4] B,,2A,,2B,,2_E,2- | 
[V:1] G2FEF4 | 
[V:2] z4F4 | 
[V:3] B2c4=B2 | 
[V:4] E,2D,C,D,4 | 
[V:1] E4z2E2 | 
[V:2] G2A3Gc2- | 
[V:3] c8 | 
[V:4] C,4z2C,2 | 
[V:1] F4E4 | 
[V:2] c2B2c2A2 | 
[V:3] z4z2c2 | 
[V:4] D,4C,4 | 
[V:1] z4z2E2 | 
[V:2] B2G2A2c2 | 
[V:3] d4c4 | 
[V:4] B,,4C,4 | 
[V:1] F3GABc2 | 
[V:2] B4A4 | 
[V:3] d4c4 | 
[V:4] z8 | 
[V:1] F3GABc2 | 
[V:2] B4A2G2 | 
[V:3] d4c4 | 
[V:4] z4z2C,2 | 
[V:1] BA2G/F/E4 | 
[V:2] FA2BcBAG | 
[V:3] F4z2c2- | 
[V:4] D,4C,4 | 
[V:1] F4E2G2- | 
[V:2] F3EG2c2- | 
[V:3] c2B2c3B | 
[V:4] D,4C,4 | 
[V:1] G2F4E2 | 
[V:2] c2B2c4 | 
[V:3] A2F2G4 | 
[V:4] D,4C,4 | 
[V:1] F8 ||  
[V:2] c8 ||  
[V:3] F8 ||  
[V:4] F,,8 ||  
[V:1]  [K:F] [K:clef=treble][M:2/1]z8 | 
[V:2]  [K:F] [K:clef=treble-8][M:2/1]A3Bc2d2- | 
[V:3]  [K:F] [K:clef=treble-8][M:2/1]F8 | 
[V:4]  [K:F] [K:clef=bass][M:2/1]z8 | 
[V:1] z8 | 
[V:2] d2c2d4- | 
[V:3] E4D3E | 
[V:4] z4B,,4- | 
[V:1] z8 | 
[V:2] d4c4 | 
[V:3] F2G4F2 | 
[V:4] B,,4A,,4 | 
[V:1] z8 | 
[V:2] B4F3G | 
[V:3] G3AB2A2- | 
[V:4] G,,4D,4- | 
[V:1] z8 | 
[V:2] A2B4A2 | 
[V:3] A2GFE4 | 
[V:4] D,4C,4 | 
[V:1] z8 | 
[V:2] B6A2 | 
[V:3] F4G3A | 
[V:4] B,,4_E,4- | 
[V:1] z8 | 
[V:2] G4F4 | 
[V:3] B2c4B2 | 
[V:4] E,4D,4 | 
[V:1] z8 | 
[V:2] G3FG2A2- | 
[V:3] c8 | 
[V:4] C,3D,E,2F,2- | 
[V:1] z8 | 
[V:2] A2G2A2F2- | 
[V:3] c4A4- | 
[V:4] F,2E,2F,2D,2- | 
[V:1] z8 | 
[V:2] F2E2D2d2- | 
[V:3] A4F4- | 
[V:4] D,2C,2D,2B,,2- | 
[V:1] z8 | 
[V:2] d2c2d2B2 | 
[V:3] F4F4 | 
[V:4] B,,2A,,2B,,2D,2 | 
[V:1] z8 | 
[V:2] c6A2 | 
[V:3] E8- | 
[V:4] C,2A,,2C,4- | 
[V:1] z8 | 
[V:2] A4z2c2- | 
[V:3] E8- | 
[V:4] C,2A,,2A,,4 | 
[V:1] z8 | 
[V:2] c2BAG4- | 
[V:3] E8 | 
[V:4] z2C,4B,,A,, | 
[V:1] z8 | 
[V:2] G2A2B4- | 
[V:3] z2G4FE | 
[V:4] G,,8 | 
[V:1] z8 | 
[V:2] B2AGF2G2 | 
[V:3] D8 | 
[V:4] B,,4B,,4 | 
[V:1] z8 | 
[V:2] A8 | 
[V:3] F4E4 | 
[V:4] A,,8 | 
[V:1] z8 | 
[V:2] z2B3Ad2- | 
[V:3] G4z2F2- | 
[V:4] z8 | 
[V:1] z8 | 
[V:2] d2c2B4 | 
[V:3] FEA4G2 | 
[V:4] z8 | 
[V:1] z8 | 
[V:2] A8 | 
[V:3] F4E4 | 
[V:4] A,,8 | 
[V:1] z8 | 
[V:2] z8 | 
[V:3] z2G2A2B2- | 
[V:4] B,,4A,,2D,2- | 
[V:1] z8 | 
[V:2] z8 | 
[V:3] B2A4G2 | 
[V:4] D,2C,2B,,4 | 
[V:1] z8 | 
[V:2] c6B2 | 
[V:3] A8 | 
[V:4] A,,8 | 
[V:1] z8 | 
[V:2] A4G4- | 
[V:3] E8 | 
[V:4] C,8 | 
[V:1] z8 | 
[V:2] G2FED4 | 
[V:3] z8 | 
[V:4] B,,8 | 
[V:1] z8 | 
[V:2] E2F2E2A2- | 
[V:3] z8 | 
[V:4] A,,8 | 
[V:1] z8 | 
[V:2] A2G2A4 | 
[V:3] z8 | 
[V:4] A,,2B,,2A,,2D,2- | 
[V:1] z8 | 
[V:2] F2G2B2A2 | 
[V:3] z8 | 
[V:4] D,2C,2D,4 | 
[V:1] z8 | 
[V:2] B2G4F2 | 
[V:3] z8 | 
[V:4] B,,2C,2_E,2D,2 | 
[V:1] z8 | 
[V:2] G8- | 
[V:3] z4z2D2 | 
[V:4] _E,2C,4B,,2 | 
[V:1] z8 | 
[V:2] G8 | 
[V:3] _E2D2C2B,2 | 
[V:4] C,2B,,2C,2G,,2 | 
[V:1] z8 | 
[V:2] G8 | 
[V:3] _E2D2_E2D2 | 
[V:4] C,2B,,2C,2B,,2 | 
[V:1] z8 | 
[V:2] G3F/G/A2G2- | 
[V:3] C2_E4D2- | 
[V:4] _E,3D,C,2B,,2 | 
[V:1] z8 | 
[V:2] G2F4E2 | 
[V:3] D2C4B,2 | 
[V:4] C,2F,,2G,,4 | 
[V:1] z8 ||  
[V:2] F8 ||  
[V:3] C8 ||  
[V:4] F,,8 ||  
[V:1]  [K:F] [K:clef=treble][M:2/1]z8 | 
[V:2]  [K:F] [K:clef=treble-8][M:2/1]z8 | 
[V:3]  [K:F] [K:clef=treble-8][M:2/1]z2F2G2B2- | 
[V:4]  [K:F] [K:clef=bass][M:2/1]B,,8 | 
[V:1] z8 | 
[V:2] z2c2d2f2- | 
[V:3] B2A2B3A | 
[V:4] C,4B,,4 | 
[V:1] z8 | 
[V:2] f2e2f2F2 | 
[V:3] G4F4 | 
[V:4] C,4D,4 | 
[V:1] z8 | 
[V:2] G2B2A4 | 
[V:3] z4D4 | 
[V:4] E,2G,4F,2 | 
[V:1] z4A4 | 
[V:2] G4c4 | 
[V:3] E2G4^F2 | 
[V:4] G,2G,,2A,,4 | 
[V:1] B2G4FE | 
[V:2] B3AB2c2 | 
[V:3] G8 | 
[V:4] G,,4z2C,2 | 
[V:1] D2E3FG2- | 
[V:2] d2c4c2- | 
[V:3] z8 | 
[V:4] B,,2C,3D,_E,2 | 
[V:1] GFEDE4 | 
[V:2] c2c2c4 | 
[V:3] G8- | 
[V:4] C,8 | 
[V:1] z4B4 | 
[V:2] d8 | 
[V:3] G8 | 
[V:4] B,,8 | 
[V:1] c2A4GF | 
[V:2] c3Bc2d2 | 
[V:3] A8- | 
[V:4] A,,4z2D,2 | 
[V:1] E2F3GA2- | 
[V:2] e2d3cA2 | 
[V:3] A8 | 
[V:4] C,2D,3E,F,2 | 
[V:1] AGFEF4 | 
[V:2] d8 | 
[V:3] A8 | 
[V:4] D,8 | 
[V:1] z4G4 | 
[V:2] G4G2d2- | 
[V:3] B8 | 
[V:4] z8 | 
[V:1] G2B4AG | 
[V:2] d2c2B2d2- | 
[V:3] G8 | 
[V:4] G,,8 | 
[V:1] F4G2A2- | 
[V:2] d2f2e2c2 | 
[V:3] A4z4 | 
[V:4] D,4E,2F,2 | 
[V:1] A2F2G2E2- | 
[V:2] d4B2c2 | 
[V:3] A4G4 | 
[V:4] D,4E,2C,2- | 
[V:1] E2F2G4 | 
[V:2] e2d2B2c2- | 
[V:3] A4G4 | 
[V:4] C,2D,2E,2C,2- | 
[V:1] E2F2D4 | 
[V:2] c2A2B4 | 
[V:3] A4F4 | 
[V:4] C,2D,4B,,2 | 
[V:1] E2F4D2 | 
[V:2] A4d4 | 
[V:3] z2F2B4 | 
[V:4] C,2D,2B,,4 | 
[V:1] E2C4=B,2 | 
[V:2] z4d4 | 
[V:3] A2G4F2 | 
[V:4] C,2E,2D,4 | 
[V:1] C4z2G2- | 
[V:2] e6dc | 
[V:3] G8 | 
[V:4] C,4z2E,2- | 
[V:1] G2FGA2G2 | 
[V:2] c8- | 
[V:3] z4z2G2- | 
[V:4] E,2D,E,F,2E,2 | 
[V:1] E2F2E2G2- | 
[V:2] c8 | 
[V:3] G2FGA2G2 | 
[V:4] C,8 | 
[V:1] G2FGA2G2- | 
[V:2] c8- | 
[V:3] E2F2E2C2 | 
[V:4] C,4C,4 | 
[V:1] G2F4E2 | 
[V:2] c8- | 
[V:3] E2F2G4 | 
[V:4] C,8 | 
[V:1] F8 |]  
[V:2] c8 |]  
[V:3] F8 |]  
[V:4] F,,8 |]  



